X: 29804
T: O'Carolan's Ramble To Cashel
R: waltz
M: 3/4
K: Eminor
(3def|gf ga ba|g2 fg af|e2 B2 de|d4 gf|
ed cB AG|GF GA BA|B2 e2 e2|e4||
ef|g2 b2 b2|b2 a2 g2|fe de fg|a2 g2 f2|
gf ga ba|g2 fa gf|e2 B2 de|d4||
ef ed ed|BA Bd ef|gf ga ba|g2 fa gf|e2 B2 de|
d4 gf|ed cB d/c/B/A/|GF GA BA|B2 ed ef|
g2 ab ag|ed cB d/c/B/A/|GF GA BA|B2 e2 e2|e4||

